svg/300/sharp/tap_and_play-fill.svg

<svg xmlns="http://www.w3.org/2000/svg" width="48" height="48" viewBox="0 -960 960 960"><path d="M220.001-492.692v-407.307h519.998v839.998h-45.384v-706.537h-429.23v273.846h-45.384Zm0 432.69V-182.69q51.461 0 87.076 35.614Q342.691-111.461 342.691-60h-122.69Zm195.768 0q0-81.922-56.922-138.845-56.923-56.922-138.846-56.922v-45.384q100.096 0 170.624 70.528 70.528 70.528 70.528 170.624h-45.384Zm118.462 0q0-131.153-91.434-222.691-91.433-91.538-222.796-91.538v-45.383q74.658 0 140.278 28.319 65.621 28.32 114.162 76.867 48.542 48.548 76.857 114.178 28.316 65.629 28.316 140.249h-45.383Z"/></svg>

<svg xmlns="http://www.w3.org/2000/svg" width="48" height="48" viewBox="0 -960 960 960"><path d="M220-492.69V-900h520v840h-45.39v-706.54H265.39v273.85H220ZM220-60v-122.69q51.46 0 87.08 35.61 35.61 35.62 35.61 87.08H220Zm195.77 0q0-81.92-56.92-138.85-56.93-56.92-138.85-56.92v-45.38q100.1 0 170.62 70.53Q461.15-160.1 461.15-60h-45.38Zm118.46 0q0-131.15-91.43-222.69-91.44-91.54-222.8-91.54v-45.38q74.66 0 140.28 28.32 65.62 28.31 114.16 76.86 48.54 48.55 76.86 114.18Q579.61-134.62 579.61-60h-45.38Z"/></svg>
